X:1
T: The Braes of Merven
C:Alexander Walker
R:Reel
Q: 232
K:Am
M:4/4
L:1/8
|:G|EA AG A2EC|DF EC B,G DB,|EA AG A2EC|DF E^G AA, A,G|
EA AG A2EC|DF EC B,G DB,|EA AG A2EC|DF E^G AA, A,B|
cAA2 c'2ba|ge dc BG dB|cAA2 c'2ba|ge dB cA AB|
cAA2 c'2ba|ge dc BG dB|cB cd ed ea|c'b a^g aAA:|
